X:1
T:[ID 1-58a]
T:[ID 1-58a]
T:Bezeichnung standardisiert: Menuett Men.
T:Urheber unbekannt Datum in der hier transkribierten schriftlichen Quelle: vermutlich vor 1767
C:Urheber unbekannt
C:Datum in der hier transkribierten schriftlichen Quelle: vermutlich vor 1767
L:1/8
M:3/4
K:G
V:1 treble 
V:1
 GA B2 c2 | dB G2 e2 | dgfedc | Bc B2 A2 | GA B2 c2 | dB G2 e2 | dgfedc | B6 :: e2 gf g2 | %9
 d2 gf g2 | AB c2 Bd | AGFE D2 | e2 gf g2 | d2 gf g2 | AcBAGF | G6 || %16

